icons/tongue.svg

<svg width="48" height="48" viewBox="0 0 48 48" fill="none" xmlns="http://www.w3.org/2000/svg">
<path fill-rule="evenodd" clip-rule="evenodd" d="M30.5 18C29.1193 18 28 19.1193 28 20.5C28 21.8807 29.1193 23 30.5 23C31.8807 23 33 21.8807 33 20.5C33 19.1193 31.8807 18 30.5 18ZM30 20.5C30 20.2239 30.2239 20 30.5 20C30.7761 20 31 20.2239 31 20.5C31 20.7761 30.7761 21 30.5 21C30.2239 21 30 20.7761 30 20.5Z" fill="black"/>
<path fill-rule="evenodd" clip-rule="evenodd" d="M15 20.5C15 19.1193 16.1193 18 17.5 18C18.8807 18 20 19.1193 20 20.5C20 21.8807 18.8807 23 17.5 23C16.1193 23 15 21.8807 15 20.5ZM17.5 20C17.2239 20 17 20.2239 17 20.5C17 20.7761 17.2239 21 17.5 21C17.7761 21 18 20.7761 18 20.5C18 20.2239 17.7761 20 17.5 20Z" fill="black"/>
<path fill-rule="evenodd" clip-rule="evenodd" d="M27.8737 41.5821C35.953 39.8102 42 32.6113 42 24C42 14.0589 33.9411 6 24 6C14.0589 6 6 14.0589 6 24C6 32.6113 12.047 39.8102 20.1263 41.5821C21.1716 42.4667 22.5235 43 24 43C25.4765 43 26.8284 42.4667 27.8737 41.5821ZM29.6705 38.9661C35.7081 36.6773 40 30.8399 40 24C40 15.1634 32.8366 8 24 8C15.1634 8 8 15.1634 8 24C8 30.8399 12.2919 36.6773 18.3295 38.9661C18.116 38.3502 18 37.6886 18 37V35.189C16.8702 34.7875 16.0415 34.2639 15.4372 33.6803C14.0535 32.3442 14.0396 30.8805 14.0396 30.5L14.0396 30.4963L14.0392 30.4852C14.0388 30.4752 14.0381 30.462 14.0369 30.4448C14.0347 30.4109 14.0316 30.3727 14.0276 30.3217L14.0267 30.3107C14.0182 30.2041 14.0067 30.0595 14.0021 29.9011C13.9931 29.5909 14.007 29.1635 14.1502 28.7273C14.3001 28.2703 14.5925 27.8056 15.1127 27.4707C15.6174 27.1458 16.2481 27 16.9813 27H31.0583C31.7176 27 32.2885 27.1674 32.7529 27.4913C33.2115 27.8111 33.497 28.235 33.6734 28.6382C34.0011 29.3869 34.0003 30.1862 34 30.4771L34 30.5C34 31.0066 33.7974 32.4327 32.3211 33.7157C31.7402 34.2206 30.9833 34.6847 30 35.0608V37C30 37.6886 29.884 38.3502 29.6705 38.9661ZM16.8265 32.2416C17.0933 32.4993 17.4697 32.7738 18 33.0275V32C18 31.4477 18.4477 31 19 31H29C29.5523 31 30 31.4477 30 32V32.8754C30.425 32.6573 30.7544 32.4276 31.0091 32.2062C31.4907 31.7877 31.7349 31.375 31.8611 31.0642C31.9252 30.9065 31.9603 30.7712 31.9793 30.6702C31.9888 30.6198 31.994 30.5786 31.9969 30.5484C31.9972 30.5456 31.9974 30.5429 31.9977 30.5403C31.9986 30.5291 31.9992 30.5199 31.9996 30.513L31.9999 30.5046L32 30.5C32 30.2072 31.9899 29.7799 31.8412 29.4399C31.7748 29.2884 31.6964 29.1928 31.6088 29.1317C31.5272 29.0748 31.37 29 31.0583 29H16.9813C16.5009 29 16.2822 29.0964 16.1953 29.1523C16.1239 29.1983 16.0825 29.2532 16.0504 29.3509C16.0116 29.4693 15.9951 29.6318 16.0013 29.843C16.0043 29.9453 16.0118 30.0445 16.0203 30.1514L16.0222 30.1752C16.0294 30.2634 16.0396 30.3901 16.0396 30.5L16.0396 30.5092C16.0394 30.7071 16.0385 31.4807 16.8265 32.2416ZM24 37C23.4477 37 23 36.5523 23 36V33H20V37C20 39.2091 21.7909 41 24 41C26.2091 41 28 39.2091 28 37V33H25V36C25 36.5523 24.5523 37 24 37Z" fill="black"/>
</svg>

<svg
  xmlns="http://www.w3.org/2000/svg"
  width="24"
  height="24"
  viewBox="0 0 24 24"
  fill="none"
  stroke="currentColor"
  stroke-width="2"
  stroke-linecap="round"
  stroke-linejoin="round"
>
  <path
    fill-rule="evenodd"
    d="M30.5 18a2.5 2.5 0 1 0 0 5 2.5 2.5 0 0 0 0-5m-.5 2.5a.5.5 0 1 1 1 0 .5.5 0 0 1-1 0"
    clip-rule="evenodd"
  />
  <path
    fill-rule="evenodd"
    d="M15 20.5a2.5 2.5 0 1 1 5 0 2.5 2.5 0 0 1-5 0m2.5-.5a.5.5 0 1 0 0 1 .5.5 0 0 0 0-1"
    clip-rule="evenodd"
  />
  <path
    fill-rule="evenodd"
    d="M27.874 41.582C35.953 39.81 42 32.612 42 24c0-9.941-8.059-18-18-18S6 14.059 6 24c0 8.611 6.047 15.81 14.126 17.582A5.98 5.98 0 0 0 24 43a5.98 5.98 0 0 0 3.874-1.418m1.797-2.616C35.708 36.677 40 30.84 40 24c0-8.837-7.163-16-16-16S8 15.163 8 24c0 6.84 4.292 12.677 10.33 14.966A6 6 0 0 1 18 37v-1.811c-1.13-.401-1.959-.925-2.563-1.509-1.383-1.336-1.397-2.8-1.397-3.18v-.014l-.003-.041-.01-.123v-.011a8 8 0 0 1-.025-.41c-.009-.31.005-.738.148-1.174a2.33 2.33 0 0 1 .963-1.256c.504-.325 1.135-.471 1.868-.471h14.077c.66 0 1.23.167 1.695.491.459.32.744.744.92 1.147.328.749.327 1.548.327 1.84v.022c0 .507-.203 1.933-1.679 3.216-.58.505-1.338.969-2.321 1.345V37c0 .689-.116 1.35-.33 1.966m-12.844-6.724c.266.257.643.532 1.173.786V32a1 1 0 0 1 1-1h10a1 1 0 0 1 1 1v.875a5 5 0 0 0 1.01-.669c.48-.418.725-.831.851-1.142a2 2 0 0 0 .136-.516v-.008l.003-.027V30.5c0-.293-.01-.72-.159-1.06a.7.7 0 0 0-.232-.308c-.082-.057-.239-.132-.55-.132H16.98c-.48 0-.699.096-.786.152a.33.33 0 0 0-.145.199q-.058.176-.049.492c.003.102.01.201.02.308l.001.024c.007.088.018.215.018.325v.01c0 .197-.002.97.787 1.732M24 37a1 1 0 0 1-1-1v-3h-3v4a4 4 0 0 0 8 0v-4h-3v3a1 1 0 0 1-1 1"
    clip-rule="evenodd"
  />
</svg>
